X: 2
T: Lanigan's Ball
R: jig
M: 6/8
L: 1/8
K: Emin
EFE G2A|B2A B^cd|D2E F2G|ABA AFD|EFE G2A|B2A B^c^d|e=dB =cBA|BGE E2:||:d|e2f gfg|eag fe^d|e2f gfg|fdB B3|e2f gfg|eag fe^d|e=dB cBA|BGE E2:||


Tune 264	Setting 23888

